X: 457
T:Sitno Zhensko Horo
O:Bulgaria
P:AABBCCDEDEAA
L:1/8
M:2/4
Q:1/4=120
K:Am
P:A
|:"G"d/c/d d/c/d  | d/c/B "D"A2 | "G"GA/B/ cB     | cB "D"A2    :|
P:B
|:"G"GA/B/ cB     | cB "D"A2    |"G"cB cB         | "D"A2 A2    :|
P:C
|:"G"GB GG        | GA G2       |GB GG            | GA G2       :|
P:D
K:Gm
|:"Cm"c2 c/B/A/G/ | "Gm"BB"D"AG | "Cm"c2 c/B/A/G/ | "Gm"BB"D"AG :| 
P:E
|:"Cm"c2 c/B/A/G/ | "D"^FA"Cm"GF| CDE^F           | GA "D"^F2   :|



